!!!COA: des Prez, Josquin
!!!CDT: ~1450-1521/08/27
!!!OTL: Magnificat septimi toni
!!!AGN: Motet
!!!SCT: NJE 20.5
!!!SCA: New Josquin Edition 20.5
!!!voices: 4
**kern	**kern	**kern	**kern
*part4	*part3	*part2	*part1
*staff4	*staff3	*staff2	*staff1
*Ivox	*Ivox	*Ivox	*Ivox
*I"[Bassus]	*I"[Tenor]	*I"[Altus]	*I"[Superius]
*I'B	*I'T	*I'A	*I'S
*>[A,B,C,D,E,F]	*>[A,B,C,D,E,F]	*>[A,B,C,D,E,F]	*>[A,B,C,D,E,F]
*>A	*>A	*>A	*>A
*clefF4	*clefGv2	*clefGv2	*clefG2
*k[b-]	*k[b-]	*k[b-]	*k[b-]
*F:	*F:	*F:	*F:
*M4/4	*M4/4	*M4/4	*M4/4
*met(C|)	*met(C|)	*met(C|)	*met(C|)
!!section: Et exultavit
2.GG	[0G	0r	0r
4AA	.	.	.
2BB-	.	.	.
2C	.	.	.
=2	=2	=2	=2
2BB-	0G]	0r	0r
2GG	.	.	.
2BB-	.	.	.
2C	.	.	.
=3	=3	=3	=3
1D	[0F	0r	0r
2D	.	.	.
[2D	.	.	.
=4	=4	=4	=4
2D]	0F]	0r	0r
4C	.	.	.
4BB-	.	.	.
1AA	.	.	.
=5	=5	=5	=5
2.GG	1.G	0r	0r
4AA	.	.	.
2BB-	.	.	.
2C	2A	.	.
=6	=6	=6	=6
2D	1B-	0r	0r
2E	.	.	.
2.F	[1A	.	.
4E	.	.	.
=7	=7	=7	=7
2D	1A]	0r	0r
2C	.	.	.
2BB-	[1G	.	.
[2C	.	.	.
=8	=8	=8	=8
4C]	1G]	0r	0r
4BB-	.	.	.
4AA	.	.	.
4GG	.	.	.
1AA	1F#Xi	.	.
=9	=9	=9	=9
0GG	0G	0r	0r
=10	=10	=10	=10
0r	0r	2.G	[0g
.	.	4A	.
.	.	2B-	.
.	.	2c	.
=11	=11	=11	=11
0r	0r	2B-	0g]
.	.	2G	.
.	.	2B-	.
.	.	2c	.
=12	=12	=12	=12
0r	0r	1d	[0f
.	.	2d	.
.	.	[2d	.
=13	=13	=13	=13
0r	0r	2d]	0f]
.	.	4c	.
.	.	4B-	.
.	.	1A	.
=14	=14	=14	=14
0r	0r	2.G	1.g
.	.	4A	.
.	.	2B-	.
.	.	2c	2a
=15	=15	=15	=15
0r	0r	2d	1b-
.	.	2e	.
.	.	2.f	[1a
.	.	4e	.
=16	=16	=16	=16
0r	0r	2d	1a]
.	.	2c	.
.	.	2B-	[1g
.	.	[2c	.
=17	=17	=17	=17
0r	0r	4c]	1g]
.	.	4B-	.
.	.	4A	.
.	.	4G	.
.	.	1A	1f#Xi
=18	=18	=18	=18
0r	0r	0G	0g
=19	=19	=19	=19
2.GG	0G	0r	0r
4AA	.	.	.
2BB-	.	.	.
2C	.	.	.
=20	=20	=20	=20
2.D	1.F	0r	0r
4E	.	.	.
2F	.	.	.
2E	2G	.	.
=21	=21	=21	=21
2D	0A	0r	0r
2C	.	.	.
2D	.	.	.
2F	.	.	.
=22	=22	=22	=22
1E	2.G	0r	0r
.	4A	.	.
1D	2B-	.	.
.	[2A	.	.
=23	=23	=23	=23
1C	2A]	0r	0r
.	2G	.	.
1D	2B-	.	.
.	[2A	.	.
=24	=24	=24	=24
2C	4A]	0r	0r
.	4G	.	.
2BB-	1G	.	.
1AA	.	.	.
.	2F#Xi	.	.
=25	=25	=25	=25
0GG	0G	0r	0r
=26	=26	=26	=26
0r	0r	2.G	0g
.	.	4A	.
.	.	2B-	.
.	.	2c	.
=27	=27	=27	=27
0r	0r	2.d	1.f
.	.	4e	.
.	.	2f	.
.	.	2e	2g
=28	=28	=28	=28
0r	0r	2d	1a
.	.	2c	.
.	.	2d	1a
.	.	2f	.
=29	=29	=29	=29
0r	0r	1e	2.g
.	.	.	4a
.	.	1d	2b-
.	.	.	[2a
=30	=30	=30	=30
0r	0r	1c	2a]
.	.	.	2g
.	.	1d	2b-
.	.	.	[2a
=31	=31	=31	=31
0r	0r	2c	4a]
.	.	.	4g
.	.	2B-	1g
.	.	1A	.
.	.	.	2f#Xi
=32	=32	=32	=32
0r	0r	0G	0g
=33	=33	=33	=33
2.GG	0G	0r	0r
4AA	.	.	.
2BB-	.	.	.
2C	.	.	.
=34	=34	=34	=34
2BB-	1G	0r	0r
2C	.	.	.
1FF	[1A	.	.
=35	=35	=35	=35
2r	1A]	0r	0r
2FF	.	.	.
2GG	[1G	.	.
2AA	.	.	.
=36	=36	=36	=36
2BB-	1G]	0r	0r
2C	.	.	.
1D	1F#Xi	.	.
=37	=37	=37	=37
0GG	0G	0r	0r
=38	=38	=38	=38
0r	0r	2.G	0g
.	.	4A	.
.	.	2B-	.
.	.	2c	.
=39	=39	=39	=39
0r	0r	2B-	1g
.	.	2c	.
.	.	1F	[1a
=40	=40	=40	=40
0r	0r	2r	1a]
.	.	2F	.
.	.	2G	[1g
.	.	2A	.
=41	=41	=41	=41
0r	0r	2B-	1g]
.	.	2c	.
.	.	1d	1f#Xi
=42	=42	=42	=42
2r	0r	2G	0g
1G	.	1B-	.
4F	.	4A	.
4E	.	4G	.
=43	=43	=43	=43
2D	0r	1B-	0r
1G	.	.	.
.	.	1A	.
2F	.	.	.
=44	=44	=44	=44
1G	1.B-	1.G	0g
2G	.	.	.
2F	2A	2A	.
=45	=45	=45	=45
1E-X	1G	2B-	1g
.	.	2c	.
1D	1F	2A	[1a
.	.	[2d	.
=46	=46	=46	=46
0E-Xi	0G	2d]	1a]
.	.	4c	.
.	.	4B-	.
.	.	1c	[1g
=47	=47	=47	=47
0D	0A	1d	1g]
.	.	2r	1f#Xi
.	.	[2d	.
=48	=48	=48	=48
1GG	0G	4d]	0g
.	.	4c	.
.	.	1B-	.
1r	.	.	.
.	.	4A	.
.	.	4G	.
=49	=49	=49	=49
1C	0r	1.A	0r
1C	.	.	.
.	.	2G	.
=50	=50	=50	=50
1D	0r	2F	0r
.	.	1B-	.
1C	.	.	.
.	.	[2A	.
=51	=51	=51	=51
1BB-	0r	4A]	0r
.	.	4G	.
.	.	1G	.
1AA	.	.	.
.	.	2F#Xi	.
=52	=52	=52	=52
0GG	0r	1.G	0r
.	.	[2B-	.
=53	=53	=53	=53
2r	1G	2B-]	1g
2.G	.	4A	.
.	.	4G	.
.	1G	2B-	2g
4F	.	.	.
2E-X	.	2c	[2g
=54	=54	=54	=54
1D	1A	1d	2g]
.	.	.	2f
2E-Xi	1G	2B-	2g
2C	.	2c	[2e-X
=55	=55	=55	=55
1D	1F	1A	4e-]
.	.	.	4d
.	.	.	1d
1AA	1E	2r	.
.	.	[2A	2c#Xi
=56	=56	=56	=56
2BB-	0D	4A]	[0d
.	.	4G	.
2GG	.	1G	.
1D	.	.	.
.	.	2F#Xi	.
=57	=57	=57	=57
0GG	0r	1.G	0d]
.	.	[2B-	.
=58	=58	=58	=58
1D	1B-	2B-]	0r
.	.	4A	.
.	.	4G	.
1C	1c	4A	.
.	.	4G	.
.	.	4F	.
.	.	4E	.
=59	=59	=59	=59
2D	2B-	2D	0r
2E	2G	1G	.
1D	1A	.	.
.	.	2F#Xi	.
=60	=60	=60	=60
0GG	0G	1G	0g
.	.	2r	.
.	.	[2B-	.
=61	=61	=61	=61
0G	1B-	2B-]	0g
.	.	2c	.
.	1B-	2d	.
.	.	2e	.
=62	=62	=62	=62
0F	0c	[0f	[0a
=63	=63	=63	=63
0D	0d	0f]	0a]
=64	=64	=64	=64
1G	1B-	1d	[0g
1C	1c	1e-X	.
=65	=65	=65	=65
1G	1B-	1d	0g]
1E	1G	1c	.
=66	=66	=66	=66
1.D	0A	1d	[0f
.	.	2A	.
[2F	.	[2d	.
=67	=67	=67	=67
2F]	1r	4d]	0f]
.	.	4c	.
2E	.	1c	.
1D	1F	.	.
.	.	2Bni	.
=68	=68	=68	=68
[0C	1G	[0c	[0e
.	2E	.	.
.	[2A	.	.
=69	=69	=69	=69
0C]	2A]	0c]	0e]
.	4G	.	.
.	4F	.	.
.	1G	.	.
=70	=70	=70	=70
1D	1F	1A	1d
1GG	1G	1B-	[1d
=71	=71	=71	=71
0AA	0E	0A	1d]
.	.	.	1c#X
=72	=72	=72	=72
0BB-	[0Dl	0F	[0dl
=73	=73	=73	=73
0GG	0D_	0B-	0d_
=74	=74	=74	=74
0Dl	0D]	0Al	0d]
!!LO:LB:i:g=z
=75||	=75||	=75||	=75||
*>B	*>B	*>B	*>B
*clefF4	*clefGv2	*clefGv2	*clefG2
*k[b-]	*k[b-]	*k[b-]	*k[b-]
*M4/4	*M4/4	*M4/4	*M4/4
*ZZY	*ZZY	*ZZY	*ZZY
!!section: Quia fecit
!!!OMD: Quia fecit
0G	0r	0r	0r
=76	=76	=76	=76
1F	0r	0r	0r
[1G	.	.	.
=77	=77	=77	=77
2G]	0r	0G	0r
2A	.	.	.
1B-	.	.	.
=78	=78	=78	=78
1A	0r	1F	0r
[1G	.	[1G	.
=79	=79	=79	=79
2G]	0G	2G]	0r
4F	.	2A	.
4E	.	.	.
1G	.	1B-	.
=80	=80	=80	=80
1D	1F	1A	0r
2GG	[1G	1G	.
[2G	.	.	.
=81	=81	=81	=81
2G]	2G]	1r	0g
4F	2A	.	.
4E	.	.	.
1G	1B-	1d	.
=82	=82	=82	=82
1D	1A	1.d	1f
[1GG	[1G	.	[1g
.	.	[2B-	.
=83	=83	=83	=83
0GG]	1G]	2B-]	2g]
.	.	2c	2a
.	1r	2d	1b-
.	.	[2g	.
=84	=84	=84	=84
0r	1d	2g]	1a
.	.	2f#Xi	.
.	1e-X	[1g	1g
=85	=85	=85	=85
1G	1d	1g]	1b-
2.G	1B-	2r	2.b-
.	.	[2G	.
4F	.	.	4a
=86	=86	=86	=86
2E	2c	2G]	2g
2D	1d	2A	2f
1G	.	2B-	1g
.	4c	2c	.
.	4B-	.	.
=87	=87	=87	=87
1D	1A	1d	1f
2r	2G	2B-	1g
[2G	[2B-	[2d	.
=88	=88	=88	=88
2G]	2B-]	2d]	1b-
4F	2c	2e	.
4E	.	.	.
1D	2.d	1f	1a
.	4c	.	.
=89	=89	=89	=89
2E	2B-	2e	2g
2F	2A	1d	2.a
2G	2B-	.	.
.	.	.	4g
2E	2G	2c	[2g
=90	=90	=90	=90
1D	1A	1d	2g]
.	.	.	2f#Xi
1r	[1G	1r	[1g
=91	=91	=91	=91
2.GG	0G_	2.B-	1g]
4AA	.	4c	.
2BB-	.	2d	1r
[2C	.	[2e-Xi	.
=92	=92	=92	=92
4C]	1G]	2e-Xi]	1g
4D	.	.	.
4E	.	4d	.
4F	.	4c	.
2.G	1r	2B-	1g
.	.	[2G	.
4A	.	.	.
=93	=93	=93	=93
2B-	0r	4G]	1g
.	.	4A	.
1G	.	2B-	.
.	.	1c	1a
2F#Xi	.	.	.
=94	=94	=94	=94
1G	0r	2B-	1g
.	.	2.e-X	.
1r	.	.	1f
.	.	4d	.
.	.	[2d	.
=95	=95	=95	=95
1r	1A	2d]	1e
.	.	2c#Xi	.
1r	1B-	[1d	[1d
=96	=96	=96	=96
1G	2G	0d_	1d]
.	1B-	.	.
1G	.	.	1r
.	4A	.	.
.	4G	.	.
=97	=97	=97	=97
1G	1B-	1d]	0r
1A	1c	1r	.
=98	=98	=98	=98
1G	2B-	0r	0r
.	2.e-X	.	.
1F	.	.	.
.	4d	.	.
.	[2d	.	.
=99	=99	=99	=99
1E	2d]	1r	0r
.	2c#Xi	.	.
1D	1d	1A	.
=100	=100	=100	=100
1r	1G	1B-	1g
2r	1r	2G	1g
[2G	.	[2B-	.
=101	=101	=101	=101
2G]	1G	4B-]	1g
.	.	4c	.
4F	.	4d	.
4E	.	4e	.
2D	2F	[1f	[1a
2E	2G	.	.
=102	=102	=102	=102
1F	2A	1f]	1a]
.	2B-	.	.
1C	1c	1e	1g
=103	=103	=103	=103
1D	0A	1d	1f
1AA	.	[1c	[1e
=104	=104	=104	=104
1C	1G	2c]	1e]
.	.	2B-	.
1D	1F	[1A	[1d
=105	=105	=105	=105
0AA	0E	1A]	1d]
.	.	1G	1c#Xi
=106	=106	=106	=106
1.BB-	1.D	1F	[0dl
.	.	[1f	.
2C	2E	.	.
=107	=107	=107	=107
1D	1F	2f]	0d_
.	.	2e	.
[1GG	[1B-	[1d	.
=108	=108	=108	=108
2GG]	2B-]	2d]	0d_
2AA	2A	2c	.
2BB-	[1G	[1B-	.
2C	.	.	.
=109	=109	=109	=109
0D	1G]	1B-]	0d_
.	1F#Xi	1A	.
=110	=110	=110	=110
0GGl	0Gl	0B-l	0d]
!!LO:LB:i:g=z
=111||	=111||	=111||	=111||
*>C	*>C	*>C	*>C
*clefF4	*clefGv2	*clefGv2	*clefG2
*k[b-e-]	*k[b-]	*k[b-]	*k[b-]
*M4/4	*M4/4	*M4/4	*M4/4
*ZZY	*ZZY	*ZZY	*ZZY
*B-:	*	*	*
!!section: Fecit potentiam
!!!OMD: Fecit potentiam
0GG	1.G	1.G	0r
.	[2G	[2B-	.
=112	=112	=112	=112
0D	2G]	2B-]	0r
.	4F	4A	.
.	4E	4G	.
.	1F	1A	.
=113	=113	=113	=113
0E-	2.G	0G	0g
.	4A	.	.
.	4B-	.	.
.	4c	.	.
.	[2B-	.	.
=114	=114	=114	=114
[0D	2B-]	1.d	[0f
.	4A	.	.
.	4G	.	.
.	4A	.	.
.	4G	.	.
.	4F	[2d	.
.	4E	.	.
=115	=115	=115	=115
0D_	2D	2d]	0f_
.	1d	4c	.
.	.	4B-	.
.	.	1A	.
.	4c	.	.
.	4B-	.	.
=116	=116	=116	=116
0D]	2A	0d	0f]
.	2G	.	.
.	1A	.	.
=117	=117	=117	=117
1r	0G	2r	0g
.	.	2B-	.
2.GG	.	2.B-	.
4AA	.	4c	.
=118	=118	=118	=118
2BB-	1r	2d	0g
2.C	.	2.e-X	.
.	2.G	.	.
4BB-	.	4d	.
2C	.	2c	.
.	4A	.	.
=119	=119	=119	=119
2GG	2B-	2B-	0g
1C	1c	1e-Xi	.
2GG	2B-	2d	.
=120	=120	=120	=120
1C	2c	2e-Xi	0g
.	2.e-X	2.c	.
2r	.	.	.
.	4d	4B-	.
2C	[2c	[2e-Xi	.
=121	=121	=121	=121
2C	2c]	2e-Xi]	0g
2GG	2B-	2d	.
1C	1c	2e-Xi	.
.	.	2c	.
=122	=122	=122	=122
2r	2G	2B-	0g
2C	2.e-X	1G	.
2C	.	.	.
.	4d	.	.
2C	[2c	[2e-Xi	.
=123	=123	=123	=123
2C	2c]	2e-]	0g
2GG	2B-	2d	.
1C	1c	1e-Xi	.
=124	=124	=124	=124
2r	2G	[0d	0b-
2G	2.B-	.	.
2G	.	.	.
.	4A	.	.
2G	[2G	.	.
=125	=125	=125	=125
2D	2G]	1d]	1a
2D	2F	.	.
1GG	[1G	2.B-	1g
.	.	4c	.
=126	=126	=126	=126
2r	1G]	2d	1b-
2G	.	2e	.
2.D	2r	[1f	[1a
.	2d	.	.
4E-	.	.	.
=127	=127	=127	=127
1F	2c	1f]	1a]
.	2A	.	.
2r	2B-	1d	1g
2G	2B-	.	.
=128	=128	=128	=128
2.D	2A	2r	0a
.	1d	2f	.
4E-	.	.	.
1F	.	2.f	.
.	2c	.	.
.	.	4e	.
=129	=129	=129	=129
1G	2B-	2d	0r
.	2G	1g	.
1D	1A	.	.
.	.	2f	.
=130	=130	=130	=130
2r	[0G	1.g	0g
2GG	.	.	.
2.GG	.	.	.
.	.	4f	.
4AA	.	4e	.
=131	=131	=131	=131
2BB-	0G]	2d	1g
1C	.	2c	.
.	.	1d	1g
2BB-	.	.	.
=132	=132	=132	=132
1C	1r	1e	1g
1FF	1c	[1f	[1a
=133	=133	=133	=133
2r	1F	1f]	1a]
2FF	.	.	.
2GG	1B-	[1d	[1g
2AA	.	.	.
=134	=134	=134	=134
2BB-	1B-	0d]	1g]
2C	.	.	.
1D	1A	.	1f#Xi
=135	=135	=135	=135
1GG	0G	0d	0g
1r	.	.	.
=136	=136	=136	=136
1G	1B-	0r	0r
1G	1B-	.	.
=137	=137	=137	=137
1.A	1.c	0r	0r
2G	2B-	.	.
=138	=138	=138	=138
1F	1A	1c	0r
1E-	1G	1c	.
=139	=139	=139	=139
1D	2F	1.d	0r
.	1B-	.	.
2r	.	.	.
2AA	[2A	2c	.
=140	=140	=140	=140
2BB-	4A]	1B-	0r
.	4G	.	.
2C	1G	.	.
1D	.	1A	.
.	2F#Xi	.	.
=141	=141	=141	=141
2GG	1G	2G	1g
1G	.	2.B-	.
.	1r	.	1g
.	.	4c	.
4F	.	4d	.
4E-	.	4e	.
=142	=142	=142	=142
2.D	1d	1.f	1.a
4E-	.	.	.
2F	2c	.	.
2G	2B-	[2d	2g
=143	=143	=143	=143
1D	2A	4d]	1f
.	.	4c	.
.	1d	2d	.
2r	.	1A	1e
2AA	2c	.	.
=144	=144	=144	=144
2BB-	2.d	0r	0d
2GG	.	.	.
.	4c	.	.
1D	2B-	.	.
.	[2A	.	.
=145	=145	=145	=145
1AA	2A]	1c	0r
.	4G	.	.
.	4F	.	.
2r	1E	1c	.
2AA	.	.	.
=146	=146	=146	=146
2BB-	2D	1.d	0r
2C	2E	.	.
2D	2F	.	.
2AA	[2A	2c	.
=147	=147	=147	=147
2BB-	4A]	1B-	0r
.	4G	.	.
2C	1G	.	.
1D	.	1A	.
.	2F#Xi	.	.
=148	=148	=148	=148
2GG	2G	2G	1g
1.G	1.B-	1d	.
.	.	.	1g
.	.	2e	.
=149	=149	=149	=149
1.F	2A	1.f	1.a
.	2.d	.	.
.	4c	.	.
2G	[2B-	2e	2g
=150	=150	=150	=150
1D	2B-]	1d	1f
.	1A	.	.
1AA	.	2r	[1e
.	4G	[2c	.
.	4F	.	.
=151	=151	=151	=151
1C	1E	4c]	1e]
.	.	4B-	.
.	.	1A	.
1BB-	2F	.	[1d
.	2G	2G	.
=152	=152	=152	=152
0AA	2F	0A	1d]
.	4E	.	.
.	4D	.	.
.	1E	.	1c#Xi
=153	=153	=153	=153
0BB-	[0Dl	0F	[0dl
=154	=154	=154	=154
0GG	0D_	1.B-	0d_
.	.	4A	.
.	.	4G	.
=155	=155	=155	=155
[0D	0D_	2.F	0d_
.	.	4G	.
.	.	4A	.
.	.	4B-	.
.	.	[2A	.
=156	=156	=156	=156
0D]	0D_	4A]	0d_
.	.	4G	.
.	.	1G	.
.	.	2F#Xi	.
=157	=157	=157	=157
0GGl	0D]	0Gl	0d]
!!LO:LB:i:g=z
=158||	=158||	=158||	=158||
*>D	*>D	*>D	*>D
*clefF4	*clefGv2	*clefGv2	*clefG2
*k[b-]	*k[b-]	*k[b-]	*k[b-]
*M4/4	*M4/4	*M4/4	*M4/4
*ZZY	*ZZY	*ZZY	*ZZY
*F:	*	*	*
!!section: Exurientes
!!!OMD: Exurientes
2.GG	0G	0r	0r
4AA	.	.	.
2BB-	.	.	.
2C	.	.	.
=159	=159	=159	=159
1D	1F	0r	0r
1E-X	2G	.	.
.	[2B-	.	.
=160	=160	=160	=160
1D	2B-]	0r	0r
.	4A	.	.
.	4G	.	.
1C	4A	.	.
.	4G	.	.
.	4F	.	.
.	4E	.	.
=161	=161	=161	=161
2BB-	1D	0r	0r
1D	.	.	.
.	2B-	.	.
2C	[2A	.	.
=162	=162	=162	=162
2D	4A]	0r	0r
.	4G	.	.
2BB-	1G	.	.
1AA	.	.	.
.	2F#Xi	.	.
=163	=163	=163	=163
0GG	0G	0r	0r
=164	=164	=164	=164
0r	0r	2.G	0g
.	.	4A	.
.	.	2B-	.
.	.	2c	.
=165	=165	=165	=165
0r	0r	1d	1f
.	.	1e-X	2g
.	.	.	[2b-
=166	=166	=166	=166
0r	0r	1d	2b-]
.	.	.	4a
.	.	.	4g
.	.	1c	4a
.	.	.	4g
.	.	.	4f
.	.	.	4e
=167	=167	=167	=167
0r	0r	2B-	1d
.	.	1d	.
.	.	.	2b-
.	.	2c	[2a
=168	=168	=168	=168
0r	0r	2d	4a]
.	.	.	4g
.	.	2B-	1g
.	.	1A	.
.	.	.	2f#Xi
=169	=169	=169	=169
0r	0r	0G	0g
=170	=170	=170	=170
2.GG	0G	0r	0r
4AA	.	.	.
2BB-	.	.	.
2C	.	.	.
=171	=171	=171	=171
2BB-	1G	0r	0r
2C	.	.	.
2D	1B-	.	.
2E	.	.	.
=172	=172	=172	=172
1F	1.A	0r	0r
2D	.	.	.
[2E-X	2G	.	.
=173	=173	=173	=173
2E-X]	1B-	0r	0r
1D	.	.	.
.	1A	.	.
[2C	.	.	.
=174	=174	=174	=174
2C]	1G	0r	0r
1E-Xi	.	.	.
.	1B-	.	.
[2D	.	.	.
=175	=175	=175	=175
4D]	2A	0r	0r
4C	.	.	.
2BB-	1G	.	.
1AA	.	.	.
.	2F#Xi	.	.
=176	=176	=176	=176
0GG	0G	0r	0r
=177	=177	=177	=177
0r	0r	2.G	0g
.	.	4A	.
.	.	2B-	.
.	.	2c	.
=178	=178	=178	=178
1G	0r	2B-	1g
.	.	2c	.
2.G	.	2d	1b-
.	.	2e	.
4F	.	.	.
=179	=179	=179	=179
1D	0r	1f	1.a
1r	.	2d	.
.	.	[2e-X	2g
=180	=180	=180	=180
0r	0rB	2e-]	1b-
.	.	1d	.
.	.	.	1a
.	.	[2c	.
=181	=181	=181	=181
1r	0r	2c]	1g
.	.	1e-Xi	.
1G	.	.	1b-
.	.	[2d	.
=182	=182	=182	=182
2F	0r	4d]	2a
.	.	4c	.
2G	.	2B-	1g
1D	.	1A	.
.	.	.	2f#Xi
=183	=183	=183	=183
1GG	0r	0G	0g
1r	.	.	.
=184	=184	=184	=184
*M3/1	*M3/1	*M3/1	*M3/1
*met(C|3)	*met(C|3)	*met(C|3)	*met(C|3)
1.GG	0G	1%3r	1%3r
2AA	.	.	.
1BB-	1G	.	.
=185	=185	=185	=185
1.C	0A	1%3r	1%3r
2D	.	.	.
1E-X	1G	.	.
=186	=186	=186	=186
1BB-	0G	1%3r	1%3r
1C	.	.	.
1D	1F#Xi	.	.
=187	=187	=187	=187
0GG	0.G	1%3r	1%3r
1r	.	.	.
=188	=188	=188	=188
1%3r	1%3r	1.G	0g
.	.	2A	.
.	.	1B-	1g
=189	=189	=189	=189
1%3r	1%3r	1.c	0a
.	.	2d	.
.	.	1e-X	1g
=190	=190	=190	=190
1%3r	1%3r	1B-	0g
.	.	1c	.
.	.	1d	1f#Xi
=191	=191	=191	=191
1%3r	1%3r	0G	0g
.	.	1r	1r
=192	=192	=192	=192
0G	0B-	0d	0g
1G	1B-	1d	1g
=193	=193	=193	=193
1.F	1.c	0f	0a
2D	2d	.	.
1G	1B-	1d	1g
=194	=194	=194	=194
1C	1c	1e-X	0g
0D	0A	0d	.
.	.	.	1f#Xi
=195	=195	=195	=195
*M2/1	*M2/1	*M2/1	*M2/1
*met(C|)	*met(C|)	*met(C|)	*met(C|)
0GG	0G	1B-	0g
.	.	2r	.
.	.	[2B-	.
=196	=196	=196	=196
1r	1r	2B-]	0g
.	.	2c	.
1G	1G	2d	.
.	.	2e	.
=197	=197	=197	=197
0D	0d	1f	[0a
.	.	2r	.
.	.	[2f	.
=198	=198	=198	=198
1A	1c	2f]	0a]
.	.	2e	.
1F	1d	1f	.
=199	=199	=199	=199
0G	0B-	1d	1g
.	.	2r	1g
.	.	[2d	.
=200	=200	=200	=200
0D	0A	2d]	0f
.	.	4c	.
.	.	4B-	.
.	.	2A	.
.	.	[2d	.
=201	=201	=201	=201
0r	1r	2d]	0e
.	.	4c	.
.	.	4B-	.
.	1A	1c	.
=202	=202	=202	=202
0B-	0d	2d	0d
.	.	1f	.
.	.	4e	.
.	.	4d	.
=203	=203	=203	=203
1A	1c	1e	0r
1F	1d	1f	.
=204	=204	=204	=204
0G	0B-	1.d	0g
.	.	2e	.
=205	=205	=205	=205
0D	[0A	1.f	[0a
.	.	4e	.
.	.	4d	.
=206	=206	=206	=206
0F	0A_	2c	0a_
.	.	2d	.
.	.	2c	.
.	.	[2f	.
=207	=207	=207	=207
0D	0A]	2f]	0a_
.	.	4e	.
.	.	4d	.
.	.	[1f	.
=208	=208	=208	=208
0F	0D	1f]	0a]
.	.	1f	.
=209	=209	=209	=209
0G	0G	0d	1g
.	.	.	1g
=210	=210	=210	=210
1D	0A	1d	0f
1F	.	[1c	.
=211	=211	=211	=211
1C	1G	2c]	1e
.	.	2B-	.
1D	1F	[1A	[1d
=212	=212	=212	=212
0AA	0E	1A]	1d]
.	.	1A	1c#Xi
=213	=213	=213	=213
0BB-	[0D	0F	[0dl
=214	=214	=214	=214
[0GG	0D]	[0B-	0d_
=215	=215	=215	=215
0GG]	1r	0B-]	0d_
.	[1G	.	.
=216	=216	=216	=216
0D	1G]	1B-	0d_
.	1F	[1d	.
=217	=217	=217	=217
0GG	0G	2d]	0d_
.	.	2c	.
.	.	[1B-	.
=218	=218	=218	=218
0D	[0Fl	1B-]	0d_
.	.	1A	.
=219	=219	=219	=219
0BB-l	0F]	0B-l	0d]
!!LO:LB:i:g=z
=220||	=220||	=220||	=220||
*>E	*>E	*>E	*>E
*clefF4	*clefGv2	*clefGv2	*clefG2
*k[b-]	*k[b-]	*k[b-]	*k[b-]
*M2/1	*M2/1	*M2/1	*M2/1
*met(C|)	*met(C|)	*met(C|)	*met(C|)
!!section: Sicut locutus est
!!!OMD: Sicut locutus est
1.GG	0r	1.G	0r
2AA	.	4F	.
.	.	4E	.
=221	=221	=221	=221
2BB-	0r	2D	0r
2C	.	1G	.
1D	.	.	.
.	.	2F	.
=222	=222	=222	=222
2GG	0r	1G	0r
1G	.	.	.
.	.	1A	.
2F	.	.	.
=223	=223	=223	=223
4G	0r	1B-	0r
4F	.	.	.
4E	.	.	.
4D	.	.	.
1E	.	1c	.
=224	=224	=224	=224
2.D	0r	1.d	0r
4E	.	.	.
2F	.	.	.
2G	.	4c	.
.	.	4B-	.
=225	=225	=225	=225
1E-X	0r	4c	1g
.	.	4B-	.
.	.	4A	.
.	.	4G	.
1D	.	1A	1f
=226	=226	=226	=226
1GG	0r	0G	1g
2r	.	.	2g
2GG	.	.	2g
=227	=227	=227	=227
2BB-	0r	1r	1g
2C	.	.	.
2D	.	1B-	1r
2E	.	.	.
=228	=228	=228	=228
2F	0r	2A	0r
2G	.	1d	.
1A	.	.	.
.	.	2c	.
=229	=229	=229	=229
2r	0r	0d	0r
2D	.	.	.
2F	.	.	.
2G	.	.	.
=230	=230	=230	=230
2A	0r	1r	0r
1B-	.	.	.
.	.	1d	.
4A	.	.	.
4G	.	.	.
=231	=231	=231	=231
2A	0r	2c	0r
2D	.	1d	.
2F	.	.	.
2G	.	4c	.
.	.	4B-	.
=232	=232	=232	=232
2A	0r	2A	0r
2D	.	1f	.
2F	.	.	.
2G	.	4e	.
.	.	4d	.
=233	=233	=233	=233
2A	0r	2c	0r
2D	.	1d	.
1E	.	.	.
.	.	2c#Xi	.
=234	=234	=234	=234
1D	0r	1d	1r
1G	.	2r	1g
.	.	2G	.
=235	=235	=235	=235
2r	0r	2.B-	1g
2.G	.	.	.
.	.	4c	.
.	.	2d	1b-
4A	.	.	.
4B-	.	[2g	.
4c	.	.	.
=236	=236	=236	=236
1d	0r	2g]	1a
.	.	2f	.
[1G	.	1g	2g
.	.	.	[2b-
=237	=237	=237	=237
1G]	0r	1d	2b-]
.	.	.	4a
.	.	.	4g
2r	.	2c	2a
[2G	.	2d	[2b-
=238	=238	=238	=238
2G]	0r	2G	4b-]
.	.	.	4a
2F	.	2A	1a
1G	.	1B-	.
.	.	.	2g
=239	=239	=239	=239
1.D	0r	1A	[0a
.	.	2r	.
[2F	.	[2A	.
=240	=240	=240	=240
4F]	0r	4A]	0a_
4G	.	4B-	.
4A	.	4c	.
4B-	.	4d	.
2c	.	2e	.
2d	.	[2f	.
=241	=241	=241	=241
1c	0r	2f]	0a_
.	.	2e	.
[1F	.	2.f	.
.	.	4e	.
=242	=242	=242	=242
1F]	0r	2d	0a]
.	.	2c	.
2r	.	1f	.
2F	.	.	.
=243	=243	=243	=243
2G	0r	2e	0r
2B-	.	1d	.
1A	.	.	.
.	.	2c	.
=244	=244	=244	=244
2D	0r	2d	0r
1d	.	2f	.
.	.	1e	.
2c	.	.	.
=245	=245	=245	=245
2B-	0r	2d	0r
2G	.	1g	.
1A	.	.	.
.	.	2f#Xi	.
=246	=246	=246	=246
0G	0r	1g	1g
.	.	2r	2g
.	.	2G	[2g
=247	=247	=247	=247
2r	0r	2B-	1g]
2G	.	2B-	.
2F	.	2c	2a
2G	.	2B-	[2g
=248	=248	=248	=248
1D	0r	1A	2g]
.	.	.	2f#Xi
1GG	.	2.G	[1g
.	.	4A	.
=249	=249	=249	=249
2r	0r	2B-	0g_
2C	.	2c	.
2GG	.	2B-	.
[2C	.	[2e-X	.
=250	=250	=250	=250
4C]	0r	2e-]	0g_
4D	.	.	.
4E-Xi	.	4d	.
4F	.	4c	.
2G	.	2B-	.
2C	.	2c	.
=251	=251	=251	=251
2G	0r	2G	1g]
2E	.	1g	.
1D	.	.	1a
.	.	2f	.
=252	=252	=252	=252
2r	0r	2.g	1g
1G	.	.	.
.	.	4f	.
.	.	2e	1r
2F	.	2d	.
=253	=253	=253	=253
2G	0r	2B-	0r
2.A	.	2.c	.
4G	.	4B-	.
[2G	.	4A	.
.	.	4G	.
=254	=254	=254	=254
2G]	0r	1A	1r
2F	.	.	.
2G	.	2r	1g
2E	.	2G	.
=255	=255	=255	=255
0D	0r	2A	1f
.	.	2B-	.
.	.	2A	1f
.	.	[2d	.
=256	=256	=256	=256
2r	0r	2d]	1e
2AA	.	2c	.
2BB-	.	2.d	[1d
2C	.	.	.
.	.	4c	.
=257	=257	=257	=257
2D	0r	1B-	1d]
2E	.	.	.
2F	.	2A	1r
2G	.	[2d	.
=258	=258	=258	=258
1E	0r	2d]	1g
.	.	2c	.
1D	.	2d	[1f
.	.	4c	.
.	.	4B-	.
=259	=259	=259	=259
2r	0r	2A	2f]
2D	.	1f	1a
2F	.	.	.
2G	.	4e	4g
.	.	4d	4f
=260	=260	=260	=260
2A	0r	2c	2e
2B-	.	1d	2d
1A	.	.	1e
.	.	2c#Xi	.
=261	=261	=261	=261
2.B-	0r	2.d	[0dl
4A	.	4c	.
2G	.	2B-	.
2F	.	2A	.
=262	=262	=262	=262
1G	0r	1B-	0d]
1Dl	.	1Al	.
!!LO:LB:i:g=z
=263||	=263||	=263||	=263||
*>F	*>F	*>F	*>F
*clefF4	*clefGv2	*clefGv2	*clefG2
*k[b-]	*k[b-]	*k[b-]	*k[b-]
*M2/1	*M2/1	*M2/1	*M2/1
*met(C|)	*met(C|)	*met(C|)	*met(C|)
!!section: Sicut erat
!!!OMD: Sicut erat
2.GG	[0G	0r	0r
4AA	.	.	.
2BB-	.	.	.
[2C	.	.	.
=264	=264	=264	=264
2C]	0G]	0r	0r
2BB-	.	.	.
1E-X	.	.	.
=265	=265	=265	=265
2D	[0F	0r	0r
2.F	.	.	.
4E-Xi	.	.	.
4D	.	.	.
4C	.	.	.
=266	=266	=266	=266
2D	0F]	0r	0r
2BB-	.	.	.
1AA	.	.	.
=267	=267	=267	=267
0GG	0G	0r	0r
=268	=268	=268	=268
0r	0r	2.G	[0g
.	.	4A	.
.	.	2B-	.
.	.	[2c	.
=269	=269	=269	=269
0r	0r	2c]	0g]
.	.	2B-	.
.	.	1e-X	.
=270	=270	=270	=270
0r	0r	2d	0f
.	.	2.f	.
.	.	4e-Xi	.
.	.	4d	.
.	.	4c	.
=271	=271	=271	=271
0r	0r	2d	0f
.	.	2B-	.
.	.	1A	.
=272	=272	=272	=272
1r	1G	0G	0g
1G	1B-	.	.
=273	=273	=273	=273
2.F	0A	0r	0r
4E	.	.	.
2D	.	.	.
[2C	.	.	.
=274	=274	=274	=274
2C]	1G	0r	0r
2BB-	.	.	.
2.F	[1A	.	.
4E	.	.	.
=275	=275	=275	=275
2D	1A]	0r	0r
2C	.	.	.
2.E-X	[1G	.	.
4D	.	.	.
=276	=276	=276	=276
2C	1G]	0r	0r
2BB-	.	.	.
1AA	1F#Xi	.	.
=277	=277	=277	=277
0GG	0G	1r	1g
.	.	1d	1b-
=278	=278	=278	=278
0r	0r	2.f	0a
.	.	4e	.
.	.	2d	.
.	.	[2c	.
=279	=279	=279	=279
0r	0r	2c]	1g
.	.	2B-	.
.	.	2.f	[1a
.	.	4e	.
=280	=280	=280	=280
0r	0r	2d	1a]
.	.	2c	.
.	.	2.e-X	[1g
.	.	4d	.
=281	=281	=281	=281
0r	0r	2c	1g]
.	.	2B-	.
.	.	1A	1f#Xi
=282	=282	=282	=282
1r	1r	1G	0g
1G	1B-	1d	.
=283	=283	=283	=283
2G	2B-	2d	1g
1G	1B-	1d	.
.	.	.	1g
2G	2B-	2d	.
=284	=284	=284	=284
1C	1c	1e-X	1g
2r	2B-	2d	1g
[2C	[2c	[2e-Xi	.
=285	=285	=285	=285
2C]	2c]	2e-]	0g
2D	4B-	4d	.
.	4A	4c	.
1E-X	1G	2B-	.
.	.	2c	.
=286	=286	=286	=286
[0D	2.F	1d	0r
.	4G	.	.
.	2A	2.f	.
.	[2B-	.	.
.	.	4e	.
=287	=287	=287	=287
0D]	2B-]	2d	0r
.	4A	1g	.
.	4G	.	.
.	1A	.	.
.	.	2f#Xi	.
=288	=288	=288	=288
0GG	0G	2g	1g
.	.	2.G	.
.	.	.	1g
.	.	4A	.
.	.	4B-	.
.	.	4c	.
=289	=289	=289	=289
1G	1r	2d	1b-
.	.	2e	.
1F	1c	1f	1a
=290	=290	=290	=290
2G	2B-	2e	2g
2F	2A	1d	2.a
1E-X	2B-	.	.
.	.	.	4g
.	2G	2c	[2g
=291	=291	=291	=291
1D	1A	1d	2g]
.	.	.	2f#Xi
1GG	1G	2B-	[1g
.	.	[2e-Xi	.
=292	=292	=292	=292
1r	1r	2e-]	1g]
.	.	4d	.
.	.	4c	.
2.GG	1G	2B-	1r
.	.	[2d	.
4AA	.	.	.
=293	=293	=293	=293
2BB-	2G	2d]	0r
2C	2.A	2c	.
2D	.	2B-	.
.	4G	.	.
2E-Xi	[2G	2G	.
=294	=294	=294	=294
1D	2G]	1A	1r
.	2F#Xi	.	.
1GG	1G	1r	1r
=295	=295	=295	=295
0r	0r	2.G	1.g
.	.	4A	.
.	.	2B-	.
.	.	2c	[2a
=296	=296	=296	=296
0r	0r	2d	4a]
.	.	.	4g
.	.	2B-	1g
.	.	1A	.
.	.	.	2f#Xi
=297	=297	=297	=297
2r	2r	2G	1g
2G	2B-	2d	.
2G	2B-	2e	2g
2F	2c	2f	[2a
=298	=298	=298	=298
1E-X	1G	2B-	4a]
.	.	.	4g
.	.	2c	1g
1D	1A	2.d	.
.	.	.	2f#X
.	.	4c	.
=299	=299	=299	=299
1GG	1G	2d	0g
.	.	2c	.
1r	1r	1B-	.
=300	=300	=300	=300
1C	1.A	0r	0r
1C	.	.	.
.	2G	.	.
=301	=301	=301	=301
1.D	2F	0r	0r
.	4G	.	.
.	4A	.	.
.	2B-	.	.
2C	[2A	.	.
=302	=302	=302	=302
1BB-	4A]	0r	0r
.	4G	.	.
.	1G	.	.
1AA	.	.	.
.	2F#Xi	.	.
=303	=303	=303	=303
0GG	0G	1r	1r
.	.	1B-	1g
=304	=304	=304	=304
0r	0r	1B-	1g
.	.	[1c	[1a
=305	=305	=305	=305
0r	0r	2c]	2a]
.	.	2B-	2g
.	.	2A	1f
.	.	[2d	.
=306	=306	=306	=306
0r	0r	2d]	1e
.	.	2c#Xi	.
.	.	[1d	[1d
=307	=307	=307	=307
1G	1B-	1d]	1d]
1G	1B-	1r	1r
=308	=308	=308	=308
1.A	1.c	1r	0r
.	.	1r	.
2G	2B-	.	.
=309	=309	=309	=309
1F	1A	1c	1r
1E	1G	1c	1g
=310	=310	=310	=310
[0D	1A	1.d	2f
.	.	.	4g
.	.	.	4a
.	1r	.	2b-
.	.	2c	[2a
=311	=311	=311	=311
0D]	0r	1B-	4a]
.	.	.	4g
.	.	.	1g
.	.	1A	.
.	.	.	2f#Xi
=312	=312	=312	=312
0r	1r	0G	0g
.	1r	.	.
=313	=313	=313	=313
*M3/1	*M3/1	*M3/1	*M3/1
*met(3)	*met(3)	*met(3)	*met(3)
0G	0B-	0d	0g
1G	1B-	1d	1g
=314	=314	=314	=314
0F	0c	0f	0a
1G	1B-	1d	1g
=315	=315	=315	=315
0D	0A	0d	0f
1r	1r	1c#Xi	1e
=316	=316	=316	=316
0G	0B-	0.d	1d
.	.	.	1g
1G	1B-	.	1g
=317	=317	=317	=317
0F	0c	0f	0a
1G	1B-	[1d	1g
=318	=318	=318	=318
1D	0A	1d]	1f
1AA	.	0c	1.e
1C	1G	.	.
.	.	.	2d
=319	=319	=319	=319
1D	1F	0.A	0d
0AA	0E	.	.
.	.	.	1c#Xi
=320	=320	=320	=320
1.BB-	[0.Dl	0F	[0.dl
2AA	.	.	.
1GG	.	1B-	.
=321	=321	=321	=321
1FF	0.D_	1A	0.d_
0GG	.	0B-	.
=322	=322	=322	=322
0.Dl	0.D]	0.Al	0.d]
==	==	==	==
*-	*-	*-	*-
!!!RDF**kern: l=long note in original notation
!!!RDF**kern: i = editorial accidental
!!!ENC: Jesse Rodin 24 Oct 2020
!!!END: 2020/10/24/
!!!EED: Jesse Rodin
!!!EEV: 2021/05/05/
!!attribution-level@Jos: 4a (the rest [double question mark])
!!!ONB: Translated from MusicXML and edited on 2021/05/05/ by Craig Sapp
!!muse2ps: C^@{COA}??\n@{SCT}^i2I150v85,85,85,150z18c118
